X: 3280
T: Henrik Smed
B:[[Notböcker/Melodier til gamle danske Almuedanse for Violin solo]]
O:Danmark
Z:Søren Bak Vestergaard
M: 2/4
L: 1/8
K: G
d3 (B/c/)|d3 (B/c/)|dB ec|cB A(A/B/)|c3 (A/B/)|c3 (A/B/)|cA dc|(.B.A) G2:|\
|:!downbow!g2 (.g.e)|ed Bd|dc Ac|(.B.A) G2|g2 (.g.e)|ed Bd|dc AB|G2 z2:|
(:musicend:)
(:music:)
